X: 32070
T: Penn Y Vann
R: jig
M: 6/8
K: Amajor
|:"A"Aea|g2e age|c2B-B2B/c/|"D"dfe ecA|def efg|
"F#m"a2g age|c2B-B2B/c/|dcA"E/G#"F2"D/F#m"A-|A2G ABe|"E"G6:|
|:"F#m"BAF .c2"E"F-|F2A GF"D"E|CB,C ECE|FEF ABd|
"A7"edB .f2"E/G#9"B-|B2d cB"F#m7"A|GFG AGA|BAF "E"E3:|

